!!!COM:	Pipelare, Matthaeus
!!!CDT:	~1450///-~1550//
!!!OPR:	Missa Fors seulement
!!!ONM:	2
!!!OTL:	Gloria
!!!AGN:	Mass; Gloria
!!!SCT:	Pip1004b
!!!SCA:	Pip1004b
!!!voices-OPR:	5
!!!voices:	5
**kern	**text	**kern	**text	**kern	**text	**kern	**text	**kern	**text
*staff5	*staff5	*staff4	*staff4	*staff3	*staff3	*staff2	*staff2	*staff1	*staff1
*Ivox	*	*Ivox	*	*Ivox	*	*Ivox	*	*Ivoxa	*
*I"Bassus	*	*I"Tenor2	*	*I"Contra	*	*I"Tenor1	*	*I"Superius	*
*I'B	*	*I'T2	*	*I'C	*	*I'T1	*	*I'S	*
*>[A,B]	*>[A,B]	*>[A,B]	*>[A,B]	*>[A,B]	*>[A,B]	*>[A,B]	*>[A,B]	*>[A,B]	*>[A,B]
*>A	*>A	*>A	*>A	*>A	*>A	*>A	*>A	*>A	*>A
*clefF4	*	*clefF4	*	*clefF4	*	*clefGv2	*	*clefG2	*
*k[]	*	*k[]	*	*k[]	*	*k[]	*	*k[]	*
*M2/1	*	*M2/1	*	*M2/1	*	*M2/1	*	*M2/1	*
*met(C|)	*	*met(C|)	*	*met(C|)	*	*met(C|)	*	*met(C|)	*
!!section: Et in terra pax
!!!OMD: Et in terra pax
=1-	=1-	=1-	=1-	=1-	=1-	=1-	=1-	=1-	=1-
0r	.	0D	Et	0r	.	0r	.	0r	.
=2	=2	=2	=2	=2	=2	=2	=2	=2	=2
0r	.	1F	in	0r	.	0r	.	0r	.
.	.	1E	.	.	.	.	.	.	.
=3	=3	=3	=3	=3	=3	=3	=3	=3	=3
0r	.	1F	ter-	0r	.	0r	.	1d	Et
.	.	1G	-ra	.	.	.	.	1d	in
=4	=4	=4	=4	=4	=4	=4	=4	=4	=4
0r	.	0A	pax	1r	.	0r	.	2f/	te-
.	.	.	.	.	.	.	.	2f/	-ra
.	.	.	.	1c	Ho-	.	.	2e/	pax
.	.	.	.	.	.	.	.	2e/	ho-
=5	=5	=5	=5	=5	=5	=5	=5	=5	=5
0r	.	0r	.	2A\	-mi-	0r	.	1f	-mi-
.	.	.	.	2B-i\	.	.	.	.	.
.	.	.	.	1G	-ni-	.	.	1g	-ni-
=6	=6	=6	=6	=6	=6	=6	=6	=6	=6
1r	.	1r	.	0F	-bus	0r	.	0a	-bus
[1FF	bo-	2r	.	.	.	.	.	.	.
.	.	[2A\	bo-	.	.	.	.	.	.
=7	=7	=7	=7	=7	=7	=7	=7	=7	=7
1FF]	.	2A\]	.	0r	.	0r	.	0r	.
.	.	4G\	.	.	.	.	.	.	.
.	.	4F\	.	.	.	.	.	.	.
1FF	-ne	1A	-ne	.	.	.	.	.	.
=8	=8	=8	=8	=8	=8	=8	=8	=8	=8
1GG	vo-	4G\	vo-	0r	.	0r	.	0r	.
.	.	4F\	.	.	.	.	.	.	.
.	.	4E\	.	.	.	.	.	.	.
.	.	4D\	.	.	.	.	.	.	.
1AA	-lun-	2F\	.	.	.	.	.	.	.
.	.	[2E\	-lun-	.	.	.	.	.	.
=9	=9	=9	=9	=9	=9	=9	=9	=9	=9
1FF	-ta-	2E\]	.	0r	.	0r	.	0r	.
.	.	1D	-ta-	.	.	.	.	.	.
1EE	.	.	.	.	.	.	.	.	.
.	.	2C#i/	.	.	.	.	.	.	.
=10	=10	=10	=10	=10	=10	=10	=10	=10	=10
0DD	-tis	0D	-tis	1r	.	0r	.	0r	.
.	.	.	.	[1A	lau-	.	.	.	.
=11	=11	=11	=11	=11	=11	=11	=11	=11	=11
0r	.	0r	.	2A\]	.	0r	.	1e	lau-
.	.	.	.	2G\	-da-	.	.	.	.
.	.	.	.	1B-i	-mus	.	.	1d	-da-
=12	=12	=12	=12	=12	=12	=12	=12	=12	=12
2r	.	1r	.	0A	te	0r	.	1f	-mus
1AA	be-	.	.	.	.	.	.	.	.
.	.	2r	.	.	.	.	.	1e	te
[2C/	-ne-	2A\	be-	.	.	.	.	.	.
=13	=13	=13	=13	=13	=13	=13	=13	=13	=13
2C/]	.	2A\	-ne-	0r	.	0r	.	0r	.
2BB/	-di-	2G\	-di-	.	.	.	.	.	.
2AA/	-ci-	2F\	-ci-	.	.	.	.	.	.
2GG/	-mus	2E\	-mus-	.	.	.	.	.	.
=14	=14	=14	=14	=14	=14	=14	=14	=14	=14
0FF	te	0F	-te	1r	.	0r	.	1r	.
.	.	.	.	1A	a-	.	.	1c	a-
=15	=15	=15	=15	=15	=15	=15	=15	=15	=15
0r	.	0r	.	1F	-do-	0r	.	1d	-do-
.	.	.	.	2G\	.	.	.	1e	-ra-
.	.	.	.	[2E\	-ra-	.	.	.	.
=16	=16	=16	=16	=16	=16	=16	=16	=16	=16
0r	.	0r	.	2E\]	.	0r	.	2c/	-mus
.	.	.	.	2.A\	.	.	.	4B/	.
.	.	.	.	.	.	.	.	4A/	.
.	.	.	.	.	.	.	.	1B	.
.	.	.	.	4G#i\	.	.	.	.	.
.	.	.	.	4G#i\	-mus	.	.	.	.
.	.	.	.	4F#i\	.	.	.	.	.
=17	=17	=17	=17	=17	=17	=17	=17	=17	=17
1r	.	1r	.	2A\	te	0r	.	[0A	te
.	.	.	.	4G\	.	.	.	.	.
.	.	.	.	4F\	.	.	.	.	.
[1AA	glo-	1C	glo-	[1E	.	.	.	.	.
=18	=18	=18	=18	=18	=18	=18	=18	=18	=18
1AA]	.	2.C/	-ri-	1E]	.	0r	.	0A]	.
.	.	4D\	.	.	.	.	.	.	.
1AA	-ri-	2E\	.	1r	.	.	.	.	.
.	.	2F\	-fi-	.	.	.	.	.	.
=19	=19	=19	=19	=19	=19	=19	=19	=19	=19
1GG	-fi-	1G	-ca-	0r	.	0r	.	0r	.
1AA	-ca-	2E\	.	.	.	.	.	.	.
.	.	[2F\	-mus	.	.	.	.	.	.
=20	=20	=20	=20	=20	=20	=20	=20	=20	=20
1DD	-mus	4F\]	.	0r	.	0r	.	0r	.
.	.	4E\	.	.	.	.	.	.	.
.	.	1D	.	.	.	.	.	.	.
1EE	.	.	.	.	.	.	.	.	.
.	.	2C#i/	.	.	.	.	.	.	.
=21	=21	=21	=21	=21	=21	=21	=21	=21	=21
0DD	te	0D	te	1r	.	[0A	gra-	2r	.
.	.	.	.	.	.	.	.	1a	gra-
.	.	.	.	1F	gra-	.	.	.	.
.	.	.	.	.	.	.	.	2a/	-ti-
=22	=22	=22	=22	=22	=22	=22	=22	=22	=22
1DD	gra-	1D	gra-	1F	-ti-	0A]	.	2a/	-as
.	.	.	.	.	.	.	.	2a/	a-
2DD/	-ti-	2D\	-ti-	1F	-as	.	.	1a	-gi-
2DD/	-as	2D\	-as	.	.	.	.	.	.
=23	=23	=23	=23	=23	=23	=23	=23	=23	=23
1DD	a-	1D	a-	2r	.	0A	-ti-	1f	-mus
.	.	.	.	1F	a-	.	.	.	.
1DD	-gi-	1D	-gi-	.	.	.	.	2r	.
.	.	.	.	2F\	-gi-	.	.	2d/	ti-
=24	=24	=24	=24	=24	=24	=24	=24	=24	=24
1AA	-mus	1C	-mus	1E	-mus-	0A	-as	4e/	-bi
.	.	.	.	.	.	.	.	4d/	.
.	.	.	.	.	.	.	.	4c#i/	.
.	.	.	.	.	.	.	.	4B/	.
1AA	ti-	1AA	ti-	1E	-ti-	.	.	1c#i	.
=25	=25	=25	=25	=25	=25	=25	=25	=25	=25
1DD	-bi	2AA/	-bi	1D	-bi-	0A	a-	1d	pro-
.	.	2.A\	pro-	.	.	.	.	.	.
1DD	pro-	.	.	1D	-pro-	.	.	1d	-pter
.	.	4G\	.	.	.	.	.	.	.
.	.	4F\	.	.	.	.	.	.	.
.	.	4E\	.	.	.	.	.	.	.
=26	=26	=26	=26	=26	=26	=26	=26	=26	=26
1DD	-pter	2D\	-pter	1D	-pter	0A	-gi-	1f	ma-
.	.	4C/	.	.	.	.	.	.	.
.	.	4BB/	.	.	.	.	.	.	.
1DD	ma-	1AA	.	1D	ma-	.	.	1f	-gnam
=27	=27	=27	=27	=27	=27	=27	=27	=27	=27
1GG	-gnam	1BB	ma-	1D	-gnam	0G	-mus	1d	glo-
2GG/	glo-	1BB	-gnam	2D\	glo-	.	.	2d/	-ri-
2GG/	-ri-	.	.	2D\	-ri-	.	.	2d/	-am
=28	=28	=28	=28	=28	=28	=28	=28	=28	=28
1GG	-am	1BB	glo-	1D	-am	0G	ti-	1g	tu-
1GG	tu-	2BB/	-ri-	1E	tu-	.	.	1g	-am
.	.	2BB/	-am	.	.	.	.	.	.
=29	=29	=29	=29	=29	=29	=29	=29	=29	=29
1FF	-am	1C	tu-	1F	-am	[0A	-bi	1c	Do-
1FF	Do-	1C	-am	[1F	Do-	.	.	[1f	-mi-
=30	=30	=30	=30	=30	=30	=30	=30	=30	=30
2FF/	-mi-	1C	Do-	2F\]	.	0A]	.	2f/]	.
1FF	-ne	.	.	2F\	-mi-	.	.	2f/	-ne
.	.	2C/	-mi-	1F	-ne	.	.	1a	De-
2DD/	De-	2D\	-ne	.	.	.	.	.	.
=31	=31	=31	=31	=31	=31	=31	=31	=31	=31
1EE	-us	1BB	De-	1.E	De-	0r	.	2g/	-us
.	.	.	.	.	.	.	.	1e	Rex
1AA	Rex	1C	-us	.	.	.	.	.	.
.	.	.	.	2F\	-us	.	.	4d/	ce
.	.	.	.	.	.	.	.	4c/	.
=32	=32	=32	=32	=32	=32	=32	=32	=32	=32
1GG	ce-	1D	Rex	1G	Rex	0r	.	1B	.
1EE	.	1E	ce-	2G\	ce-	.	.	[1c	ce-
.	.	.	.	[2E\	-le-	.	.	.	.
=33	=33	=33	=33	=33	=33	=33	=33	=33	=33
0FF	-le-	0AA	-le-	2E\]	.	0r	.	2c/]	.
.	.	.	.	4D\	.	.	.	2B/	.
.	.	.	.	4C/	.	.	.	.	.
.	.	.	.	1D	.	.	.	[1A	-le-
=34	=34	=34	=34	=34	=34	=34	=34	=34	=34
0EE	-stis	0BB	.	[0E	-stis	0r	.	2A/]	.
.	.	.	.	.	.	.	.	1G#i	.
.	.	.	.	.	.	.	.	4F#i/	.
.	.	.	.	.	.	.	.	4G#i/	.
=35	=35	=35	=35	=35	=35	=35	=35	=35	=35
1r	.	[0AA	-stis	0E]	.	[0c	De-	[0A	-stis
2r	.	.	.	.	.	.	.	.	.
2E\	De-	.	.	.	.	.	.	.	.
=36	=36	=36	=36	=36	=36	=36	=36	=36	=36
2F\	-us	0AA]	.	0r	.	1c]	.	0A]	.
2F\	Pa-	.	.	.	.	.	.	.	.
2E\	-ter	.	.	.	.	1c	-us	.	.
2E\	om-	.	.	.	.	.	.	.	.
=37	=37	=37	=37	=37	=37	=37	=37	=37	=37
4AA/	-ni-	0r	.	2r	.	0c	Pa-	0r	.
4BB/	.	.	.	.	.	.	.	.	.
4C/	.	.	.	2A\	De-	.	.	.	.
4D\	.	.	.	.	.	.	.	.	.
2E\	.	.	.	2G\	-us	.	.	.	.
[2F\	-po-	.	.	[2A\	Pa-	.	.	.	.
=38	=38	=38	=38	=38	=38	=38	=38	=38	=38
2F\]	.	0r	.	2A\]	.	0c	-ter	1r	.
4E\	.	.	.	4G\	.	.	.	.	.
4D\	.	.	.	4F\	.	.	.	.	.
1E	.	.	.	1G	.	.	.	1e	De-
=39	=39	=39	=39	=39	=39	=39	=39	=39	=39
0D	-tens	0r	.	2A\	-ter	0d	om	2f/	-us
.	.	.	.	2A\	om-	.	.	2f/	Pa-
.	.	.	.	2A\	-ni-	.	.	2f/	-ter
.	.	.	.	2B-i\	-po-	.	.	2d/	om
=40	=40	=40	=40	=40	=40	=40	=40	=40	=40
0r	.	0r	.	1A	-tens	1c	.	1e	ni-
.	.	.	.	1r	.	[1B	ni	2d/	-po
.	.	.	.	.	.	.	.	[2g/	tens
=41	=41	=41	=41	=41	=41	=41	=41	=41	=41
1r	.	1E	De-	0r	.	1B]	.	4g/]	.
.	.	.	.	.	.	.	.	4f/	.
.	.	.	.	.	.	.	.	4e/	.
.	.	.	.	.	.	.	.	4d/	.
1AA	Do-	2F\	-us	.	.	[1A	po-	1c	.
.	.	2F\	Pa-	.	.	.	.	.	.
=42	=42	=42	=42	=42	=42	=42	=42	=42	=42
1C	-mi-	1E	-ter	0r	.	1A]	.	1r	.
1BB	-ne	1D	om-	.	.	1G	.	2r	.
.	.	.	.	.	.	.	.	[2d/	Do-
=43	=43	=43	=43	=43	=43	=43	=43	=43	=43
0AA	Fi-	1E	-ni-	1r	.	[0A	-tens	2d/]	.
.	.	.	.	.	.	.	.	4c#i/	.
.	.	.	.	.	.	.	.	4B/	.
.	.	1E	-po-	2E\	Do-	.	.	2c#i/	.
.	.	.	.	2E\	-mi-	.	.	2c#i/	-mi-
=44	=44	=44	=44	=44	=44	=44	=44	=44	=44
0DD	-li	1D	-tens	1F	-ne	0A]	.	1d	-ne
.	.	1r	.	1D	Fi-	.	.	1f	Fi-
=45	=45	=45	=45	=45	=45	=45	=45	=45	=45
0r	.	0r	.	1A	-li	0r	.	1e	-li
.	.	.	.	2B-i\	u-	.	.	1d	u-
.	.	.	.	2B-i\	-ni-	.	.	.	.
=46	=46	=46	=46	=46	=46	=46	=46	=46	=46
0r	.	1r	.	1A	-ge-	0r	.	2e/	-ni-
.	.	.	.	.	.	.	.	1g	-ge-
.	.	1D	Do-	1F	-ni-	.	.	.	.
.	.	.	.	.	.	.	.	2f/	-ni-
=47	=47	=47	=47	=47	=47	=47	=47	=47	=47
1r	.	2E\	-mi-	0E	-te	0r	.	0g	-tum
.	.	2E\	-ne	.	.	.	.	.	.
[1GG	u-	1D	Fi-	.	.	.	.	.	.
=48	=48	=48	=48	=48	=48	=48	=48	=48	=48
1GG]	.	1G	-li	0r	.	0r	.	0r	.
[1AA	-ni	2F\	u-	.	.	.	.	.	.
.	.	2F\	-ni	.	.	.	.	.	.
=49	=49	=49	=49	=49	=49	=49	=49	=49	=49
1AA]	.	2E\	.	0r	.	0r	.	0r	.
.	.	1A	ge-	.	.	.	.	.	.
[1C	ge-	.	.	.	.	.	.	.	.
.	.	4G\	.	.	.	.	.	.	.
.	.	4F\	.	.	.	.	.	.	.
=50	=50	=50	=50	=50	=50	=50	=50	=50	=50
1C]	.	2A\	.	0r	.	0r	.	0r	.
.	.	2.G\	-ni-	.	.	.	.	.	.
1BB	-ni-	.	.	.	.	.	.	.	.
.	.	4F\	.	.	.	.	.	.	.
.	.	4E\	.	.	.	.	.	.	.
.	.	4D\	.	.	.	.	.	.	.
=51	=51	=51	=51	=51	=51	=51	=51	=51	=51
[0AA	-te	[0C	-te	[0E	Je-	[0A	Je-	[0e	Je-
=52	=52	=52	=52	=52	=52	=52	=52	=52	=52
0AA]	.	0C]	.	0E_	.	0A]	.	0e]	.
=53	=53	=53	=53	=53	=53	=53	=53	=53	=53
0AA	Je-	0C	Je-	0E]	.	[0A	-su	0e	-su
=54	=54	=54	=54	=54	=54	=54	=54	=54	=54
0DD	-su	0D	-su	[0F	-su	0A]	.	0r	.
=55	=55	=55	=55	=55	=55	=55	=55	=55	=55
0FF	Chri-	0AA	Chri-	0F]	.	0A	Chri-	[0a	Chri-
=56	=56	=56	=56	=56	=56	=56	=56	=56	=56
0AA	.	0C	.	0E	.	0A	.	0a]	.
=57	=57	=57	=57	=57	=57	=57	=57	=57	=57
[0GG	.	[0BB	.	0G	Chri-	0B	.	0d	.
=58	=58	=58	=58	=58	=58	=58	=58	=58	=58
0GG]	.	0BB]	.	[0D	-ste	0G	.	0g	.
=59	=59	=59	=59	=59	=59	=59	=59	=59	=59
[0DD	-ste	[0AA	-ste	0D]	.	[0A	-ste	[0f	-ste
=60	=60	=60	=60	=60	=60	=60	=60	=60	=60
0DD]	.	0AA]	.	1r	.	0A]	.	0f]	.
.	.	.	.	1D	Do-	.	.	.	.
=61	=61	=61	=61	=61	=61	=61	=61	=61	=61
0r	.	0r	.	1F	-mi-	0r	.	1r	.
.	.	.	.	1G	-ne	.	.	1d	Do-
=62	=62	=62	=62	=62	=62	=62	=62	=62	=62
0r	.	0r	.	1A	De-	0r	.	1f	-mi-
.	.	.	.	1E	-us	.	.	1g	-ne
=63	=63	=63	=63	=63	=63	=63	=63	=63	=63
0r	.	0r	.	2r	.	0r	.	1a	De-
.	.	.	.	1A	A-	.	.	.	.
.	.	.	.	.	.	.	.	1e	-us
.	.	.	.	2G\	.	.	.	.	.
=64	=64	=64	=64	=64	=64	=64	=64	=64	=64
0r	.	0r	.	4F\	-gnus-	0r	.	2r	.
.	.	.	.	4G\	.	.	.	.	.
.	.	.	.	4A\	.	.	.	1a	A-
.	.	.	.	4B\	.	.	.	.	.
.	.	.	.	1c	.	.	.	.	.
.	.	.	.	.	.	.	.	[2g/	-gnus
=65	=65	=65	=65	=65	=65	=65	=65	=65	=65
0r	.	1r	.	2A\	-De-	0r	.	4g/]	De-
.	.	.	.	.	.	.	.	4f/	.
.	.	.	.	2B-i\	.	.	.	1f	.
.	.	1C	Do-	1G	.	.	.	.	.
.	.	.	.	.	.	.	.	2e/	.
=66	=66	=66	=66	=66	=66	=66	=66	=66	=66
0r	.	2D\	-mi-	0F	-i	0r	.	0f	-i
.	.	1F	-ne	.	.	.	.	.	.
.	.	4E\	.	.	.	.	.	.	.
.	.	4D\	.	.	.	.	.	.	.
=67	=67	=67	=67	=67	=67	=67	=67	=67	=67
2r	.	1F	.	0r	.	0r	.	0r	.
1AA	Do-	.	.	.	.	.	.	.	.
.	.	1E	De-	.	.	.	.	.	.
[2C/	-mi-	.	.	.	.	.	.	.	.
=68	=68	=68	=68	=68	=68	=68	=68	=68	=68
2C/]	.	1G	.	0r	.	0r	.	0r	.
1BB	-ne	.	.	.	.	.	.	.	.
.	.	1D	-us	.	.	.	.	.	.
[2D\	De-	.	.	.	.	.	.	.	.
=69	=69	=69	=69	=69	=69	=69	=69	=69	=69
2D\]	.	2r	.	0r	.	0r	.	0r	.
1AA	-us	1A	A-	.	.	.	.	.	.
[2E\	A-	2G\	.	.	.	.	.	.	.
=70	=70	=70	=70	=70	=70	=70	=70	=70	=70
2E\]	.	2E\	.	0r	.	0r	.	0r	.
2D\	.	2F\	.	.	.	.	.	.	.
2C/	.	2G\	.	.	.	.	.	.	.
[2E\	-gnus	[2E\	.	.	.	.	.	.	.
=71	=71	=71	=71	=71	=71	=71	=71	=71	=71
2E\]	.	2E\]	.	0r	.	0r	.	0r	.
4D\	.	2.A\	-gnus	.	.	.	.	.	.
4C/	.	.	.	.	.	.	.	.	.
1BB	.	.	.	.	.	.	.	.	.
.	.	4G#i\	.	.	.	.	.	.	.
.	.	4G#i\	.	.	.	.	.	.	.
.	.	4F#i\	.	.	.	.	.	.	.
=72	=72	=72	=72	=72	=72	=72	=72	=72	=72
2.AA/	De-	2A\	De-	0r	.	0A	Fi-	0r	.
.	.	4G\	.	.	.	.	.	.	.
4BB/	.	4F\	.	.	.	.	.	.	.
2C/	.	2E\	.	.	.	.	.	.	.
2D\	.	2F\	.	.	.	.	.	.	.
=73	=73	=73	=73	=73	=73	=73	=73	=73	=73
2C/	.	2E\	.	0r	.	1.A	-li-	0r	.
1D	-i	1F	-i	.	.	.	.	.	.
4C/	.	4E\	.	.	.	2B\	.	.	.
4BB/	.	4D\	.	.	.	.	.	.	.
=74	=74	=74	=74	=74	=74	=74	=74	=74	=74
1AA	.	1C	.	1A	Fi-	1c	-us	0r	.
2r	.	1r	.	2G\	-li-	[1B	Pa-	.	.
[2E\	Fi-	.	.	[2G\	-us	.	.	.	.
=75	=75	=75	=75	=75	=75	=75	=75	=75	=75
2E\]	.	0r	.	2G\]	.	1B]	.	0r	.
1D	.	.	.	2F\	Pa-	.	.	.	.
.	.	.	.	2D\	.	[1A	.	.	.
2C/	.	.	.	2E\	.	.	.	.	.
=76	=76	=76	=76	=76	=76	=76	=76	=76	=76
2D\	.	0r	.	4F\	.	1A]	.	1r	.
.	.	.	.	4D\	.	.	.	.	.
2F\	.	.	.	1d	.	.	.	.	.
1E	-li-	.	.	.	.	1G	.	1g	Fi-
.	.	.	.	2c#i\	.	.	.	.	.
=77	=77	=77	=77	=77	=77	=77	=77	=77	=77
1D	-us	1r	.	2d\	.	[0Al	-tris	1f	-li-
.	.	.	.	4c\	.	.	.	.	.
.	.	.	.	4B\	.	.	.	.	.
2r	.	2r	.	2c\	.	.	.	2e/	-us-
[2DD/	Pa-	[2AA/	Fi-	[2A\	.	.	.	[2f/	-Pa-
=78	=78	=78	=78	=78	=78	=78	=78	=78	=78
4DD/]	.	2AA/]	.	4A\]	.	0A_	.	4f/]	.
4EE/	.	.	.	4G\	.	.	.	4e/	.
4FF/	.	2AA/	-li-	2F\	.	.	.	1d	.
4GG/	.	.	.	.	.	.	.	.	.
1AA	.	2AA/	-us	1E	.	.	.	.	.
.	.	2AA/	Pa-	.	.	.	.	2c#i/	.
=79	=79	=79	=79	=79	=79	=79	=79	=79	=79
0DDl	-tris	0AAl	-tris	0Dl	-tris	0A]	.	0dl	-tris
!!LO:LB:i:g=z
=80||	=80||	=80||	=80||	=80||	=80||	=80||	=80||	=80||	=80||
*>B	*>B	*>B	*>B	*>B	*>B	*>B	*>B	*>B	*>B
*clefF4	*	*clefF4	*	*clefF4	*	*clefGv2	*	*clefG2	*
*k[]	*	*k[]	*	*k[]	*	*k[]	*	*k[]	*
*M2/1	*	*M2/1	*	*M2/1	*	*M2/1	*	*M2/1	*
*met(C|)	*	*met(C|)	*	*met(C|)	*	*met(C|)	*	*met(C|)	*
!!section: Qui tollis
!!!OMD: Qui tollis
0r	.	0r	.	1G	Qui	0r	.	1r	.
.	.	.	.	2G\	tol-	.	.	1d	Qui
.	.	.	.	2G\	-lis	.	.	.	.
=81	=81	=81	=81	=81	=81	=81	=81	=81	=81
0r	.	0r	.	1D	pec-	0r	.	2d/	tol-
.	.	.	.	.	.	.	.	2d/	-lis
.	.	.	.	2D\	-ca-	.	.	1A	pec-
.	.	.	.	[2F\	-ta	.	.	.	.
=82	=82	=82	=82	=82	=82	=82	=82	=82	=82
0r	.	0r	.	2F\]	.	0r	.	2A/	-ca-
.	.	.	.	4E\	.	.	.	1c	-ta
.	.	.	.	4D\	.	.	.	.	.
.	.	.	.	1F	.	.	.	.	.
.	.	.	.	.	.	.	.	4B/	.
.	.	.	.	.	.	.	.	4A/	.
=83	=83	=83	=83	=83	=83	=83	=83	=83	=83
0r	.	1r	.	1E	mun-	0r	.	1c	mun-
.	.	2r	.	1D	-di	.	.	1B	.
.	.	[2D\	mi-	.	.	.	.	.	.
=84	=84	=84	=84	=84	=84	=84	=84	=84	=84
0r	.	2D\]	.	0r	.	0r	.	[0A	-di
.	.	2C/	.	.	.	.	.	.	.
.	.	2AA/	.	.	.	.	.	.	.
.	.	2D\	.	.	.	.	.	.	.
=85	=85	=85	=85	=85	=85	=85	=85	=85	=85
1r	.	2C/	.	0r	.	0r	.	0A]	.
.	.	1F	.	.	.	.	.	.	.
2r	.	.	.	.	.	.	.	.	.
[2AA/	Mi-	2E\	-se-	.	.	.	.	.	.
=86	=86	=86	=86	=86	=86	=86	=86	=86	=86
2AA/]	.	2C/	-re-	0r	.	0r	.	0r	.
2FF/	-se-	2D\	.	.	.	.	.	.	.
2GG/	-re-	2E\	.	.	.	.	.	.	.
2AA/	-re	[2AA/	-re	.	.	.	.	.	.
=87	=87	=87	=87	=87	=87	=87	=87	=87	=87
1DD	no-	2AA/]	.	0r	.	0r	.	0r	.
.	.	2.D\	no-	.	.	.	.	.	.
1EE	.	.	.	.	.	.	.	.	.
.	.	4C#i/	.	.	.	.	.	.	.
.	.	4C#i/	.	.	.	.	.	.	.
.	.	4BB/	.	.	.	.	.	.	.
=88	=88	=88	=88	=88	=88	=88	=88	=88	=88
0DD	-bis	0D	-bis	1r	.	0r	.	2r	.
.	.	.	.	.	.	.	.	2f/	qui
.	.	.	.	2r	.	.	.	1f	tol-
.	.	.	.	2A\	qui	.	.	.	.
=89	=89	=89	=89	=89	=89	=89	=89	=89	=89
0r	.	0r	.	1A	tol-	0r	.	1f	-lis
.	.	.	.	1A	-lis	.	.	2r	pec-
.	.	.	.	.	.	.	.	2f/	-ca-
=90	=90	=90	=90	=90	=90	=90	=90	=90	=90
0r	.	0r	.	2r	.	0r	.	1f	-ta
.	.	.	.	2.F\	pec-	.	.	.	.
.	.	.	.	.	.	.	.	1f	mun-
.	.	.	.	4E\	.	.	.	.	.
.	.	.	.	2D\	-ca-	.	.	.	.
=91	=91	=91	=91	=91	=91	=91	=91	=91	=91
0r	.	0r	.	2C/	-ta	0r	.	2e/	-di
.	.	.	.	1D	mun-	.	.	1f	su-
.	.	.	.	4C/	.	.	.	4e/	.
.	.	.	.	4BB/	.	.	.	4d/	.
=92	=92	=92	=92	=92	=92	=92	=92	=92	=92
1r	.	1r	.	1AA	-di	[0E	su-	1c	.
[1AA	Su-	[1C	su-	[1A	su-	.	.	[1c	.
=93	=93	=93	=93	=93	=93	=93	=93	=93	=93
2AA/]	.	2C/]	.	1A]	.	0E]	.	1c]	.
2AA/	-sci-	2C/	-sci-	.	.	.	.	.	.
1AA	-pe	1C	-pe	1A	-sci-	.	.	1c	-sci
=94	=94	=94	=94	=94	=94	=94	=94	=94	=94
1AA	de-	1C	de-	[0A	-pe	0E	-sci-	[0c	pe
2AA/	-pre-	2C/	-pre-	.	.	.	.	.	.
[2AA/	-ca-	[2C/	-ca-	.	.	.	.	.	.
=95	=95	=95	=95	=95	=95	=95	=95	=95	=95
2AA/]	.	2C/]	.	0A_	.	0E	-pe	0c]	.
2AA/	-ti-	2C/	-ti-	.	.	.	.	.	.
1AA	-o-	1C	-o-	.	.	.	.	.	.
=96	=96	=96	=96	=96	=96	=96	=96	=96	=96
0DD	-nem	1.D	-nem	0A]	.	[0F	de-	0r	.
.	.	4C/	.	.	.	.	.	.	.
.	.	4BB/	.	.	.	.	.	.	.
=97	=97	=97	=97	=97	=97	=97	=97	=97	=97
1FF	no-	1AA	.	0r	.	1F]	.	1r	.
1GG	.	1BB	.	.	.	2E/	-pre-	2r	.
.	.	.	.	.	.	2D/	-ca-	2d/	de-
=98	=98	=98	=98	=98	=98	=98	=98	=98	=98
0EE	.	0GG	no-	0r	.	0C	-ti-	2e/	-pre-
.	.	.	.	.	.	.	.	1g	-ca-
.	.	.	.	.	.	.	.	4f/	.
.	.	.	.	.	.	.	.	4e/	.
=99	=99	=99	=99	=99	=99	=99	=99	=99	=99
[0DD	-stram	[0AA	-stram	1r	.	0D	-o-	2f/	-ti-
.	.	.	.	.	.	.	.	1d	-o-
.	.	.	.	2r	.	.	.	.	.
.	.	.	.	[2D\	de-	.	.	4c/	.
.	.	.	.	.	.	.	.	4B/	.
=100	=100	=100	=100	=100	=100	=100	=100	=100	=100
0DD]	.	0AA]	.	2D\]	.	0F	-nem	2A/	.
.	.	.	.	4C/	.	.	.	2.d/	.
.	.	.	.	4BB/	.	.	.	.	.
.	.	.	.	2AA/	.	.	.	.	.
.	.	.	.	.	.	.	.	4c/	.
.	.	.	.	2D\	-pre-	.	.	4B/	.
.	.	.	.	.	.	.	.	4A/	.
=101	=101	=101	=101	=101	=101	=101	=101	=101	=101
0r	.	0r	.	2.GG/	-ca-	0G	.	2.B/	-nem
.	.	.	.	4AA/	.	.	.	4c/	.
.	.	.	.	2BB/	.	.	.	2d/	.
.	.	.	.	[2C/	-ti-	.	.	[2e/	.
=102	=102	=102	=102	=102	=102	=102	=102	=102	=102
0r	.	1r	.	2C/]	.	[0E	no-	2e/]	.
.	.	.	.	4BB/	.	.	.	4d/	.
.	.	.	.	4AA/	.	.	.	4c/	.
.	.	2r	.	2GG/	.	.	.	2B/	.
.	.	[2A\	qui	[2C/	-o-	.	.	[2e/	no-
=103	=103	=103	=103	=103	=103	=103	=103	=103	=103
0r	.	2A\]	.	2C/]	.	0E]	.	2e/]	.
.	.	2G\	.	2BB/	-nem	.	.	1d	.
.	.	1A	se-	1AA	nos-	.	.	.	.
.	.	.	.	.	.	.	.	2c#i/	.
=104	=104	=104	=104	=104	=104	=104	=104	=104	=104
1r	.	1F	-des	[0A	-tram	[0D	-stram	[0d	-stram
[1D	qui	2D\	ad	.	.	.	.	.	.
.	.	[2F\	dex-	.	.	.	.	.	.
=105	=105	=105	=105	=105	=105	=105	=105	=105	=105
1D]	.	4F\]	.	0A]	.	0D]	.	0d]	.
.	.	4G\	.	.	.	.	.	.	.
.	.	1A	.	.	.	.	.	.	.
1D	se-	.	.	.	.	.	.	.	.
.	.	4G\	.	.	.	.	.	.	.
.	.	4F\	.	.	.	.	.	.	.
=106	=106	=106	=106	=106	=106	=106	=106	=106	=106
1F	-des	1A	.	0r	.	0r	.	0r	.
1F	ad	2A\	-te-	.	.	.	.	.	.
.	.	[2c\	-ram	.	.	.	.	.	.
=107	=107	=107	=107	=107	=107	=107	=107	=107	=107
1E	dex-	2c\]	.	0r	.	0r	.	0r	.
.	.	4B\	.	.	.	.	.	.	.
.	.	4A\	.	.	.	.	.	.	.
2D\	-te-	2B\	.	.	.	.	.	.	.
[2F\	-ram	[2A\	Pa-	.	.	.	.	.	.
=108	=108	=108	=108	=108	=108	=108	=108	=108	=108
2F\]	.	2A\]	.	1r	.	0r	.	0r	.
2E\	Pa-	2G\	.	.	.	.	.	.	.
2D\	.	2F\	.	2r	.	.	.	.	.
4C/	.	4E\	.	[2A\	Mi-	.	.	.	.
4BB/	.	4D\	.	.	.	.	.	.	.
=109	=109	=109	=109	=109	=109	=109	=109	=109	=109
0AA	-tris	0C	-tris-	2A\]	.	0r	.	1r	.
.	.	.	.	4G\	.	.	.	.	.
.	.	.	.	4F\	.	.	.	.	.
.	.	.	.	2E\	.	.	.	2r	.
.	.	.	.	[2F\	-se-	.	.	[2a/	mi-
=110	=110	=110	=110	=110	=110	=110	=110	=110	=110
0r	.	0r	.	2F\]	.	0r	.	2a/]	.
.	.	.	.	4E\	.	.	.	4g/	.
.	.	.	.	4D\	.	.	.	4f/	.
.	.	.	.	2C/	.	.	.	2e/	.
.	.	.	.	[2D\	-re-	.	.	[2f/	-se-
=111	=111	=111	=111	=111	=111	=111	=111	=111	=111
0r	.	0r	.	2D\]	.	[0A	quo-	2f/]	.
.	.	.	.	4C/	.	.	.	4e/	.
.	.	.	.	4BB/	.	.	.	4d/	.
.	.	.	.	2AA/	.	.	.	2c/	.
.	.	.	.	2D\	-re	.	.	2f/	-re-
=112	=112	=112	=112	=112	=112	=112	=112	=112	=112
1r	.	1r	.	2C/	.	0A]	.	2e/	-re
.	.	.	.	2D\	no-	.	.	2f/	no-
[1AA	quo-	[1C	-quo-	2AA/	-bis	.	.	1c	-bis
.	.	.	.	[2E\	quo-	.	.	.	.
=113	=113	=113	=113	=113	=113	=113	=113	=113	=113
2AA/]	.	2C/]	.	2E\]	.	0A	-ni-	2r	.
2AA/	-ni-	2C/	-ni-	2E\	-ni-	.	.	2.a/	quo-
1AA	-am	1C	-am	1E	-am	.	.	.	.
.	.	.	.	.	.	.	.	4a/	-ni-
.	.	.	.	.	.	.	.	2a/	-am
=114	=114	=114	=114	=114	=114	=114	=114	=114	=114
1AA	tu	1r	.	1C	tu	0A	-am	2r	.
.	.	.	.	.	.	.	.	2.a/	tu
1FF	so-	2r	.	2r	.	.	.	.	.
.	.	.	.	.	.	.	.	4g/	.
.	.	[2C/	tu	[2c\	so-	.	.	2f/	.
=115	=115	=115	=115	=115	=115	=115	=115	=115	=115
1C	-lus	2C/]	.	2c\]	.	0G	tu	2e/	so-
.	.	2C/	so-	2c\	-lus	.	.	2.f/	-lus
1C	san-	2C/	-lus	1c	san-	.	.	.	.
.	.	.	.	.	.	.	.	4e/	.
.	.	2C/	san-	.	.	.	.	4e/	san-
.	.	.	.	.	.	.	.	4d/	.
=116	=116	=116	=116	=116	=116	=116	=116	=116	=116
0FF	-ctus	1C	-ctus	2A\	.	0F	so-	[0f	-ctus
.	.	.	.	2.c\	-ctus	.	.	.	.
.	.	2r	.	.	.	.	.	.	.
.	.	.	.	4B\	.	.	.	.	.
.	.	2C/	tu	4A\	.	.	.	.	.
.	.	.	.	4G\	.	.	.	.	.
=117	=117	=117	=117	=117	=117	=117	=117	=117	=117
0r	.	2D\	so-	2F\	.	1.A	-lus	0f]	.
.	.	1F	-lus	1A	tu	.	.	.	.
.	.	4E\	.	4G\	.	2B\	.	.	.
.	.	4D\	.	4F\	.	.	.	.	.
=118	=118	=118	=118	=118	=118	=118	=118	=118	=118
0r	.	1C	.	1E	.	1c	san-	0r	.
.	.	1D	Do-	1F	so-	[1B	.	.	.
=119	=119	=119	=119	=119	=119	=119	=119	=119	=119
0r	.	1E	.	1G	-lus	1B]	.	0r	.
.	.	2C/	.	2E\	.	[1A	.	.	.
.	.	[2D\	-mi-	[2F\	Do-	.	.	.	.
=120	=120	=120	=120	=120	=120	=120	=120	=120	=120
0r	.	4D\]	.	4F\]	.	1A]	.	0r	.
.	.	4C/	.	4E\	.	.	.	.	.
.	.	4BB/	.	4D\	.	.	.	.	.
.	.	4AA/	.	4C/	.	.	.	.	.
.	.	1BB	.	1D	.	1G#i	.	.	.
=121	=121	=121	=121	=121	=121	=121	=121	=121	=121
1r	.	0AA	-nus	2E\	-mi-	[0A	-ctus	0r	.
.	.	.	.	1F	-nus	.	.	.	.
[1AA	Tu	.	.	.	.	.	.	.	.
.	.	.	.	4E\	.	.	.	.	.
.	.	.	.	4D\	.	.	.	.	.
=122	=122	=122	=122	=122	=122	=122	=122	=122	=122
1AA]	.	0r	.	2C/	.	0A]	.	0r	.
.	.	.	.	1c	tu	.	.	.	.
1AA	so-	.	.	.	.	.	.	.	.
.	.	.	.	4B\	.	.	.	.	.
.	.	.	.	4A\	.	.	.	.	.
=123	=123	=123	=123	=123	=123	=123	=123	=123	=123
1C	-lus	0r	.	2G\	.	0r	.	0r	.
.	.	.	.	1A	so-	.	.	.	.
1D	al-	.	.	.	.	.	.	.	.
.	.	.	.	[2B\	-lus	.	.	.	.
=124	=124	=124	=124	=124	=124	=124	=124	=124	=124
1E	-tis-	0r	.	2B\]	.	0r	.	0r	.
.	.	.	.	2c\	al-	.	.	.	.
2C/	.	.	.	2A\	.	.	.	.	.
[2D\	.	.	.	[2B\	-tis-	.	.	.	.
=125	=125	=125	=125	=125	=125	=125	=125	=125	=125
2D\]	.	0r	.	4B\]	.	0r	.	0r	.
.	.	.	.	4A\	.	.	.	.	.
2F\	.	.	.	1d	.	.	.	.	.
1E	-si-	.	.	.	.	.	.	.	.
.	.	.	.	2c#i\	-si-	.	.	.	.
=126	=126	=126	=126	=126	=126	=126	=126	=126	=126
0D	-mus	0r	.	1d	-mus	0r	.	1r	.
.	.	.	.	2r	.	.	.	[1d	Je-
.	.	.	.	[2D\	Je-	.	.	.	.
=127	=127	=127	=127	=127	=127	=127	=127	=127	=127
0r	.	0r	.	2D\]	.	0r	.	1d]	.
.	.	.	.	2G\	.	.	.	.	.
.	.	.	.	2F\	.	.	.	1d	-su
.	.	.	.	2G\	-su	.	.	.	.
=128	=128	=128	=128	=128	=128	=128	=128	=128	=128
1r	.	1r	.	4D\	Chri-	0r	.	[0d	Chri-
.	.	.	.	4E\	.	.	.	.	.
.	.	.	.	4F\	.	.	.	.	.
.	.	.	.	4G\	.	.	.	.	.
1D	Je-	1F	Je-	2A\	.	.	.	.	.
.	.	.	.	[2B\	.	.	.	.	.
=129	=129	=129	=129	=129	=129	=129	=129	=129	=129
1D	-su	1F	-su	2B\]	.	0r	.	0d]	.
.	.	.	.	1A	.	.	.	.	.
1BB	Chri-	1D	Chri-	.	.	.	.	.	.
.	.	.	.	2G#i\	.	.	.	.	.
=130	=130	=130	=130	=130	=130	=130	=130	=130	=130
[0AA	-ste	0E	-ste	1.A	-ste	[0A	cum	[0c	.
.	.	.	.	4G\	.	.	.	.	.
.	.	.	.	4F\	.	.	.	.	.
=131	=131	=131	=131	=131	=131	=131	=131	=131	=131
0AA]	.	0r	.	0E	.	0A]	.	0c]	.
=132	=132	=132	=132	=132	=132	=132	=132	=132	=132
0AA	cum	0C	cum	0E	cum	0A	Sanc-	1A	-ste
.	.	.	.	.	.	.	.	2r	.
.	.	.	.	.	.	.	.	[2a/	cum
=133	=133	=133	=133	=133	=133	=133	=133	=133	=133
1AA	Sanc-	1C	Sanc-	1E	Sanc-	0A	-to	2a/]	.
.	.	.	.	.	.	.	.	4g/	.
.	.	.	.	.	.	.	.	4f/	.
1AA	-to	1C	-to	1E	-to	.	.	2e/	.
.	.	.	.	.	.	.	.	2a/	Sanc
=134	=134	=134	=134	=134	=134	=134	=134	=134	=134
[0GG	Spi-	[0D	Spi-	[0G	Spi-	0B	Spi-	1d	to
.	.	.	.	.	.	.	.	2r	.
.	.	.	.	.	.	.	.	[2g/	Spi-
=135	=135	=135	=135	=135	=135	=135	=135	=135	=135
1GG]	.	1D]	.	1G]	.	0B	-ri-	2g/]	.
.	.	.	.	.	.	.	.	4f/	.
.	.	.	.	.	.	.	.	4e/	.
1GG	-ri	1D	-ri-	1G	-ri-	.	.	2d/	.
.	.	.	.	.	.	.	.	2g/	-ri-
=136	=136	=136	=136	=136	=136	=136	=136	=136	=136
1C	tu	1E	-tu	1G	-tu	[0c	-tu	1c	-tu
1C	in	1E	in	1G	in	.	.	1e	in
=137	=137	=137	=137	=137	=137	=137	=137	=137	=137
1C	glo-	1E	glo-	1A	glo-	0c]	.	1e	glo-
1C	-ri-	1E	-ri-	1G	-ri-	.	.	1e	-ri-
=138	=138	=138	=138	=138	=138	=138	=138	=138	=138
[0FF	-a	1C	-a	1F	-a	[0c	in	1.f	-a
.	.	[1F	De-	[1A	De-	.	.	.	.
.	.	.	.	.	.	.	.	4e/	.
.	.	.	.	.	.	.	.	4d/	.
=139	=139	=139	=139	=139	=139	=139	=139	=139	=139
1FF]	.	2F\]	.	1A]	.	1c]	.	1c	.
.	.	2E\	.	.	.	.	.	.	.
1GG	De-	1D	.	1G	.	1B	glo-	1r	.
=140	=140	=140	=140	=140	=140	=140	=140	=140	=140
0AA	-i	1C	-i	[0E	-i	0A	-ri-	1c	De-
.	.	2r	.	.	.	.	.	[1e	.
.	.	[2C/	Pa-	.	.	.	.	.	.
=141	=141	=141	=141	=141	=141	=141	=141	=141	=141
0EE	.	2C/]	.	0E]	.	0G	-a	2e/]	.
.	.	4BB/	.	.	.	.	.	2f/	.
.	.	4AA/	.	.	.	.	.	.	.
.	.	1BB	.	.	.	.	.	1g	.
=142	=142	=142	=142	=142	=142	=142	=142	=142	=142
1r	.	0AA	-tris	1E	Pa-	0A	De-	2c/	-i
.	.	.	.	.	.	.	.	2.e/	Pa-
1AA	Pa-	.	.	1C	.	.	.	.	.
.	.	.	.	.	.	.	.	4d/	.
.	.	.	.	.	.	.	.	4c/	.
.	.	.	.	.	.	.	.	4B/	.
=143	=143	=143	=143	=143	=143	=143	=143	=143	=143
1AA	-tris	0r	.	1c	.	1F	-i	1A	-tris
2GG/	.	.	.	2B\	.	[1G	Pa-	2r	.
[2C/	A-	.	.	[2c\	.	.	.	[2e/	A-
=144	=144	=144	=144	=144	=144	=144	=144	=144	=144
2C/]	.	0r	.	4c\]	.	2G/]	.	2e/]	.
.	.	.	.	4B\	.	.	.	.	.
2D\	.	.	.	1A	.	2F/	.	2d/	.
2AA/	.	.	.	.	.	2E/	.	2c/	.
2BB/	.	.	.	2G\	.	2D/	-tis	2d/	.
=145	=145	=145	=145	=145	=145	=145	=145	=145	=145
2AA/	.	1r	.	2A\	.	0E	A-	2c/	.
2GG/	.	.	.	2B-i\	.	.	.	2.d/	.
1AA	.	2r	.	1A	-tris	.	.	.	.
.	.	.	.	.	.	.	.	4c#i/	.
.	.	[2AA/	A-	.	.	.	.	4c#i/	.
.	.	.	.	.	.	.	.	4B/	.
=146	=146	=146	=146	=146	=146	=146	=146	=146	=146
2FF/	.	2AA/]	.	2A\	A-	[0Dl	-men	[0d	-men
1GG	.	1BB-i	.	1G	.	.	.	.	.
2FF/	.	2AA/	.	2A\	.	.	.	.	.
=147	=147	=147	=147	=147	=147	=147	=147	=147	=147
[0DDl	-men	[0AAl	-men	0F	-men	0D_	.	0d]	.
=148	=148	=148	=148	=148	=148	=148	=148	=148	=148
0DD]	.	0AA]	.	0Al	.	0D]	.	0dl	.
==	==	==	==	==	==	==	==	==	==
*-	*-	*-	*-	*-	*-	*-	*-	*-	*-
!!!RDF**kern: l=long note in original notation
!!!RDF**kern: i=editorial accidental
!!!ENC:	Jesse Rodin 8/24/2013
!!!END:	2013/08/24/
!!!EED:	Jesse Rodin
!!!EEV:	2013/08/29/
!!!ONB:	Translated from MusicXML and edited on 2013/08/29/ by Craig Sapp
!!muse2ps: T^@{OPR}^u^@{ONM}{. }@{OTL}^C^@{COM}^i2I150v85,85,85,85,110Q2c180
